X:1
T:Suffer the Children to Come to Me
T:Suffer the Children to Come to Me
T:J. M. S.
T:Margarette W. Snodgrass, 1878
T:Public Domain Courtesy of the Cyber Hymnal™
T:Public Domain Courtesy of the Cyber Hymnal™
C:J. M. S.
Z:Public Domain
Z:Courtesy of the Cyber Hymnal™
%%score 1 ( 2 3 )
L:1/8
Q:1/4=100
M:4/4
K:Ab
V:1 treble 
V:2 bass 
V:3 bass 
V:1
 [CE]2 [Ec][Ec] [Ec]2 [DB][CA] | [DB]2 [DF]2 [DF]2 [DF][DF] | [DF]2 [CE]2 [CE]2 [EA][EA] | %3
w: 1.~The sweet- est words I have|ev- er read Are the|lov- ing words that the|
w: 2.~Oh, how He part- ed the|throng that pressed, And so|ten- der- ly ev- ery|
w: 3.~I won- der what I should|ev- er do, If the|Sav- ior had on- ly|
w: 4.~I grieve to think I should|ev- er go Far a-|way from HIm who has|
 [EA]2 [EG]2 [EG]2 z2 | [CE]2 [Ec][Ec] [Ec]2 [DB][CA] | [DB]2 [DF]2 [DF]2 [FA][GB] | %6
w: Sav- ior said:|“Suf- fer the child- ren to|come to Me.” Who’d have|
w: child ca- ressed!|This is the glad- ness of|all my song, That to|
w: called a few,|Tak- ing the old, and the|wise and great; Oh, I|
w: loved me so;|All thro’ my life this my|song shall be, What the|
 [Ec]2 [CA]2 [CE]2 [EA]2 | [EG]2 [EB]2 [EA]4 ||"^Refrain" [Ec]2 [Ec][Ec] [Ee]2 [Ec][Ec] | %9
w: ev- er thought of|this but He?||
w: this dear Sav- ior|I be- long.|“Suf- fer the child- ren to|
w: am so glad I|need not wait.||
w: bless- èd Sav- ior’s|done for me.||
 [EB]2 [EB]2 [Ed]2 z2 | [Ed]2 [EB][EB] [EB]2 [DG][DG] | [CA]2 [CA]2 [Ec]4 | %12
w: |||
w: come to Me,|Suf- fer the child- ren to|come to Me”;|
w: |||
w: |||
 [Ec]2 [Ec][Ec] [Ee]2 [Ec]2 | [EB]2 [EB]2 [Ed]2 z2 | [Ec]2 [DB][CA] [CE]2 [CA]2 | %15
w: |||
w: I am as glad as|glad can be,|Those ve- ry words were|
w: |||
w: |||
 [DG]2 [DB]2 [CA]4 |] %16
w: |
w: meant for me.|
w: |
w: |
V:2
 [A,,A,]2 [A,,A,][A,,A,] [A,,A,]2 [A,,E,][A,,E,] | [D,F,]2 [D,A,]2 [D,A,]2 [D,A,][D,A,] | %2
 [A,,A,]2 [A,,A,]2 [A,,A,]2 [A,,C][A,,C] | [E,C]2 [E,B,]2 [E,B,]2 z2 | %4
 [A,,A,]2 [A,,A,][A,,A,] [A,,A,]2 [A,,E,][A,,E,] | [D,F,]2 [D,A,]2 [D,A,]2 [D,A,][D,A,] | %6
 [A,,A,]2 [A,,A,]2 [A,,A,]2 [A,,C]2 | [E,B,]2 [E,D]2 [A,,C]4 || A,2 A,A, [A,C]2 A,A, | %9
 [E,G,]2 [E,G,]2 [E,B,]2 z2 | [E,B,]2 [E,G,][E,G,] [E,G,]2 [E,B,][E,B,] | A,2 A,2 A,4 | %12
 A,2 A,A, [A,C]2 A,2 | [E,G,]2 [E,G,]2 [E,B,]2 z2 | [A,,A,]2 [A,,A,][A,,A,] [A,,A,]2 [A,,E,]2 | %15
 E,2 E,2 [A,,E,]4 |] %16
V:3
 x8 | x8 | x8 | x8 | x8 | x8 | x8 | x8 || A,2 A,A, x A,A, x | x8 | x8 | A,2 A,2 A,4 | %12
 A,2 A,A, x A,2 x | x8 | x8 | E,2 E,2 x4 |] %16

